cli/packages/themer-wallpaper-triangles/assets/desktop-dark.svg

<svg height="1800" viewBox="0 0 2880 1800" width="2880" xmlns="http://www.w3.org/2000/svg" xmlns:xlink="http://www.w3.org/1999/xlink"><filter id="a" height="100%" width="100%" x="0" y="0"><feTurbulence baseFrequency=".4" numOctaves="3" result="turbulence" type="fractalNoise"/><feColorMatrix in="turbulence" result="desaturatedTurbulence" type="saturate" values="0.1"/><feBlend in="SourceGraphic" in2="desaturatedTurbulence" mode="multiply" result="multiplied"/><feBlend in="multiplied" in2="desaturatedTurbulence" mode="screen"/></filter><pattern id="b" height="48" patternUnits="userSpaceOnUse" width="24"><path d="m0 0h24l-12 24z" fill="#282629"/><path d="m0 24h12l-12 24z" fill="#282629"/><path d="m12 24h12v24z" fill="#282629"/><path d="m0 0 12 24h-12z" fill="#fffcff" opacity=".5"/><path d="m24 0v24h-12z" fill="#fffcff" opacity=".5"/><path d="m12 24 12 24h-24z" fill="#fffcff" opacity=".5"/></pattern><linearGradient id="c" x1="0" x2="100%" y1="50%" y2="100%"><stop offset="0" stop-color="#f553bf"/><stop offset="1" stop-color="#ffd24a"/></linearGradient><linearGradient id="d" x1="100%" x2="0" y1="0" y2="100%"><stop offset="0" stop-color="#26c99e"/><stop offset=".45" stop-color="#26c99e" stop-opacity="0"/></linearGradient><linearGradient id="e" x1="0" x2="100%" y1="100%" y2="0"><stop offset="0" stop-color="#ff4050"/><stop offset=".25" stop-color="#ff4050" stop-opacity="0"/></linearGradient><rect fill="url(#c)" height="100%" width="100%"/><rect fill="url(#d)" height="100%" width="100%"/><rect fill="url(#e)" height="100%" width="100%"/><rect fill="url(#b)" filter="url(#a)" height="100%" opacity=".3" width="100%"/></svg>

<svg width="2880" height="1800" viewBox="0 0 2880 1800" xmlns="http://www.w3.org/2000/svg">
            <style>
              .triangle--zero { fill: #282629; }
              .triangle--seven {
                fill: #FFFCFF;
                opacity: 0.5;
              }
            </style>
            <defs>
              <filter id="texture" filterUnits="objectBoundingBox" x="0" y="0" width="100%" height="100%">
                <feTurbulence type="fractalNoise" baseFrequency="0.4" numOctaves="3" result="turbulence" />
                <feColorMatrix type="saturate" values="0.1" in="turbulence" result="desaturatedTurbulence" />
                <feBlend in="SourceGraphic" in2="desaturatedTurbulence" mode="multiply" result="multiplied" />
                <feBlend in="multiplied" in2="desaturatedTurbulence" mode="screen" />
              </filter>
              <pattern id="triangles" width="24" height="48" patternUnits="userSpaceOnUse">
                <path class="triangle--zero" d="M0,0 L24,0 L12,24 Z" />
                <path class="triangle--zero" d="M0,24 L12,24 L0,48 Z" />
                <path class="triangle--zero" d="M12,24 L24,24 L 24,48 Z" />
                <path class="triangle--seven" d="M0,0 L12,24 L0,24 Z" />
                <path class="triangle--seven" d="M24,0 L24,24 L12,24 Z" />
                <path class="triangle--seven" d="M12,24 L24,48 L0,48 Z" />
              </pattern>
              <linearGradient id="warm-linear" x1="0" y1="50%" x2="100%" y2="100%">
                <stop stop-color="#F553BF" offset="0%" />
                <stop stop-color="#FFD24A" offset="100%" />
              </linearGradient>
              <linearGradient id="cool-linear" x1="100%" y1="0" x2="0" y2="100%">
                <stop stop-color="#26C99E" offset="0%" />
                <stop stop-color="#26C99E" stop-opacity="0" offset="45%" />
              </linearGradient>
              <linearGradient id="accent-linear" x1="0" y1="100%" x2="100%" y2="0">
                <stop stop-color="#FF4050" offset="0%" />
                <stop stop-color="#FF4050" stop-opacity="0" offset="25%" />
              </linearGradient>
            </defs>
            <rect x="0" y="0" width="100%" height="100%" fill="url(#warm-linear)" />
            <rect x="0" y="0" width="100%" height="100%" fill="url(#cool-linear)" />
            <rect x="0" y="0" width="100%" height="100%" fill="url(#accent-linear)" />
            <rect x="0" y="0" width="100%" height="100%" fill="url(#triangles)" filter="url(#texture)" opacity="0.3" />
          </svg>
